/* XPM */
static char *sysmon[] = {
/* width height num_colors chars_per_pixel */
"48 48 6 1",
/* colors */
". c #1e1e1e",
"# c #0078d4",
"a c #00ff88",
"b c #ffaa00",
"c c #ff5555",
"d c #ffffff",
/* pixels */
"................................................",
"................................................",
"................................................",
"................................................",
"..............############.......................",
".............##############......................",
"............################.....................",
"...........##################....................",
"..........####################...................",
"..........###aaaaa######bbbbb##..................",
".........###aaaaaaa####bbbbbbb##.................",
".........###aaaaaaa####bbbbbbb##.................",
".........###aaaaaaa####bbbbbbb##.................",
".........###aaaaa######bbbbb####.................",
".........####################cccc##..............",
"........####################cccccc##.............",
"........####################cccccc##.............",
"........####################cccccc##.............",
"........######################cccc##.............",
"........##########################...............",
"........##########################...............",
"........####dddd####dddd####dddd##...............",
".......####ddddddd##ddddddd##ddddd##.............",
".......###dddddddd##dddddddd##dddddd##...........",
".......###dddddddd##dddddddd##dddddd##...........",
".......####dddddd####dddddd####ddddd##...........",
".......####dddd######dddd######dddd###...........",
".......############################...............",
"........##########################...............",
"........##########################...............",
"........##########################...............",
"........##########################...............",
"........##########################...............",
".........########################................",
".........########################................",
"..........######################.................",
"..........######################.................",
"...........####################..................",
"............##################...................",
"............##################...................",
".............################....................",
"..............##############.....................",
"................................................",
"................................................",
"................................................",
"................................................",
"................................................",
"................................................"
};
